X: 20832
T: the Bell of Craigfoodie
%R: air, reel
B: James Oswald "The Caledonian Pocket Companion" v.2 p.83 #1
Z: 2019 John Chambers <jc:trillian.mit.edu>
N: Missing dots added to several long notes to fix the rhythms.
M: C|
L: 1/8
K: G
"_Slow"B>A |\
G2 d4 Tc>B | A2 e4 Td>c | B2(gf) (ge)(dB) | TAGAB A2TB>A |\
G2 d4 Tc>B | A2 e4 Td>c | (B<g)(d<B) {d}c2(B>A) | G6 :|
|: (Bc) |\
d3e (dB)(AG) | g3d (dB)(AG) | b3a (ge)(dB) |\
(TAG)(AB)A2 (d/B/G) | E2 E4 (G/A/B) | D2 D4 (ge) | (d<g) (D<G) B2(TA>G) | G6 :|
|: (BA) |\
GD G4 AB | AD A4 (Bc) | .B(ded) (ge)(dB) |\
a2A2- AcBA | GDGB GDGB | ADAc ADAc | (B<g)(dB) {d}c2(BA) | G6 :|
|: (Bc) |\
.d(BAB) .d(BAB) | (dB)ge {e}d3e | g3a {ga}b2(ag) | (ag)(ab) a2(ba) |\
(ge) e4 ba | gd d4 (bg) | (e<g)(d<B) {d}c2(BA) | G6 :|
